public/assets/img/casestudies/recupera/brand1Sm.svg

<svg fill="none" height="199" viewBox="0 0 149 199" width="149" xmlns="http://www.w3.org/2000/svg" xmlns:xlink="http://www.w3.org/1999/xlink"><clipPath id="a"><path d="m0 0h149v199h-149z"/></clipPath><g clip-path="url(#a)"><path d="m3.97779 179.136c-8.70779 8.901-22.82589 8.901-31.53369 0-8.7078-8.902-8.7078-23.333 0-32.235l128.9199-131.7839c8.707-8.90128 22.826-8.90128 31.533 0 8.708 8.9013 8.708 23.3331 0 32.2344z" fill="#fad166"/><path d="m47.3193 192.964c-3.4296 3.505-8.9902 3.505-12.4199 0-3.4296-3.506-3.4296-9.19 0-12.696l65.4316-66.886c3.43-3.506 8.99-3.506 12.42 0s3.43 9.19 0 12.696z" fill="#7368f8"/><path d="m-42.1284 128.534c-3.8425 3.928-10.0725 3.928-13.9151 0s-3.8426-10.296 0-14.224l81.0261-82.8266c3.8426-3.9279 10.0726-3.928 13.9152 0 3.8425 3.9279 3.8425 10.2964 0 14.2243z" fill="#29a42e"/><path d="m63.7115 21.1387c-3.8425 3.928-10.0726 3.928-13.9152.0001-3.8425-3.9279-3.8425-10.2965.0001-14.22441 3.8426-3.92794 10.0727-3.92802 13.9152-.00007 3.8426 3.92798 3.8425 10.29648-.0001 14.22438z" fill="#7368f8"/></g></svg>

<svg width="149" height="199" viewBox="0 0 149 199" fill="none" xmlns="http://www.w3.org/2000/svg">
<g clip-path="url(#clip0_2241_166566)">
<path d="M3.97779 179.136C-4.73 188.037 -18.8481 188.037 -27.5559 179.136C-36.2637 170.234 -36.2637 155.803 -27.5559 146.901L101.364 15.1171C110.071 6.21582 124.19 6.21582 132.897 15.1171C141.605 24.0184 141.605 38.4502 132.897 47.3515L3.97779 179.136Z" fill="#FAD166"/>
<path d="M47.3193 192.964C43.8897 196.469 38.3291 196.469 34.8994 192.964C31.4698 189.458 31.4698 183.774 34.8994 180.268L100.331 113.382C103.761 109.876 109.321 109.876 112.751 113.382C116.181 116.888 116.181 122.572 112.751 126.078L47.3193 192.964Z" fill="#7368F8"/>
<path d="M-42.1284 128.534C-45.9709 132.462 -52.2009 132.462 -56.0435 128.534C-59.8861 124.606 -59.8861 118.238 -56.0435 114.31L24.9826 31.4834C28.8252 27.5555 35.0552 27.5554 38.8978 31.4834C42.7403 35.4113 42.7403 41.7798 38.8978 45.7077L-42.1284 128.534Z" fill="#29A42E"/>
<path d="M63.7115 21.1387C59.869 25.0667 53.6389 25.0667 49.7963 21.1388C45.9538 17.2109 45.9538 10.8423 49.7964 6.91439C53.639 2.98645 59.8691 2.98637 63.7116 6.91432C67.5542 10.8423 67.5541 17.2108 63.7115 21.1387Z" fill="#7368F8"/>
</g>
<defs>
<clipPath id="clip0_2241_166566">
<rect width="149" height="199" fill="white"/>
</clipPath>
</defs>
</svg>
